X:1
T:The Rose Tree
L:1/8
Q:1/4=110
M:2/4
K:D
[K:D] D4 | E4 | G4 | A4 |
 d4 | A4 |G2 A2 | d4 ::
 z4 | z4 | z4 | z4 |
 B2 A2 | G2 F2 | G2 A2 | D4 ::
 .D z z (^G | .A) z z2 | G2 E2 |A2 c2 |
 .d z z ([^G=f] | .[A^f]) z z2 | G2 A2 | d4 ::
 z4 | z4 | z4 | z4 |
 B4 | A4 | G2 A2 |D4 :|
